!!!COM:	Bach, Johann Sebastian
!!!CDT:	1685/02/21/-1750/07/28/
!!!OTL@@DE:	Wenn wir in h&ouml;chsten N&ouml;ten sein
!!!SCT:	BWV 432
!!!PC#:	247
!!!AGN:	chorale
**kern	**kern	**kern	**kern
*ICvox	*ICvox	*ICvox	*ICvox
*Ibass	*Itenor	*Ialto	*Isoprn
*I"Bass	*I"Tenor	*I"Alto	*I"Soprano
*clefF4	*clefGv2	*clefG2	*clefG2
*k[f#]	*k[f#]	*k[f#]	*k[f#]
*G:	*G:	*G:	*G:
*M4/4	*M4/4	*M4/4	*M4/4
*met(c)	*met(c)	*met(c)	*met(c)
*MM100	*MM100	*MM100	*MM100
8GL	4B	4d	4g
8F#J	.	.	.
=1	=1	=1	=1
8EL	4B	4.e	4g
8DJ	.	.	.
8CL	8AL	.	4a
8DJ	8F#J	8d	.
4GG	4G	8dL	4b
.	.	8eJ	.
4D	4A	4f#	8aL
.	.	.	8bJ
=2	=2	=2	=2
8AAL	8AL	8eL	8ccL
8BBJ	8dJ	16gL	8bJ
.	.	16f#JJ	.
8CL	8cL	8eL	4a
8DJ	16BL	8f#J	.
.	16AJJ	.	.
4GG;	4B;	4d;	4g;
8GL	4d	4g	4b
8F#J	.	.	.
=3	=3	=3	=3
4E	8eL	8gL	4cc
.	[8d#J	[8aJ	.
4E	8d#L]	8aL]	4b
.	8eJ	8gJ	.
4.E	4c	8f#L	4a
.	.	16eL	.
.	.	16d#JJ	.
.	4B	4e	4g
8D	.	.	.
=4	=4	=4	=4
8CL	4A	4dnX	8f#L
8BBJ	.	.	8gJ
8AAL	4B	4d	8.gL
8GGJ	.	.	.
.	.	.	32f#LL
.	.	.	32gJJJ
4D;	4F#;	4d;	4a;
4BB	8BL	4f#	4dd
.	8AJ	.	.
=5	=5	=5	=5
8EL	8GL	4e	4cc
8F#J	8AJ	.	.
4.G	4B	8dL	4b
.	.	16c#L	.
.	.	16dJJ	.
.	4c#	8eL	4a
8F#L	.	16f#L	.
.	.	16eJJ	.
8B	4B	4d	8gL
8AJ	.	.	8f#J
=6	=6	=6	=6
8GL	8BL	4d	8.eL
8EJ	8GJ	.	.
.	.	.	32f#LL
.	.	.	32gJJJ
4A	4A	4c#	4e
4D;	4F#;	4d;	4d;
4D#	4F#	4f#	4b
=7	=7	=7	=7
8EL	8GL	4e	4cc
8F#J	8AJ	.	.
4G	4B	4dnX	4b
8C#L	8E	8eL	4a
8D#J	4B	8f#J	.
8EL	.	4g	8gL
16DL	8c	.	8aJ
16CJJ	.	.	.
=8	=8	=8	=8
8BBL	4d	4g	4b
8CJ	.	.	.
4D	16cLL	4f#	4a
.	16BJ	.	.
.	8cJ	.	.
4GG;	4B;	4d;	4g;
==	==	==	==
*-	*-	*-	*-
!!!hum2abc: -Q ''
!!!title: @{PC#}. @{OTL@@DE}
!!!YOR1: 371 vierstimmige Choralges&auml;nge von Johann Sebastian Bach, 
!!!YOR2: 4th ed. by Alfred D&ouml;rffel (Leipzig: Breitkopf und H&auml;rtel, 
!!!YOR2: c.1875). 178 pp. Plate "V.A.10".  reprint: J.S. Bach, 371 Four-Part 
!!!YOR4: Chorales (New York: Associated Music Publishers, Inc., c.1940).
!!!SMS: B&H, 4th ed, Alfred D&ouml;rffel, c.1875, plate V.A.10
!!!EED:  Craig Stuart Sapp
!!!EEV:  2009/05/22
